X:1
T:Come Thou Fount of Every Blessing
T:Lyrics Robert Robinson Tune of John Wyeth's "Nettleton" 
T:arr. Jonathan St. Vincent
%%score { ( 1 3 ) | 2 }
L:1/8
Q:1/4=120
M:3/4
K:Eb
V:1 treble nm="Piano" snm="Pno."
V:3 treble 
V:2 bass 
V:1
|:"^Adagio"!mf! [EG][DF] | E2 E2 [EG][EB] | [DF]2 [DF]2 [EG][EB] | [Ec]2 [Ec]2 [EG][DF] | %4
 E4 [EG][DF] | E2 E2 [EG][EB] | [DF]2 [DF]2 [EG][EB] | [Ec]2 [Ec]2 [EG][DF] | E4 Bc/d/ | %9
 [Ge]2 [Bd]2 [Ac][GB] | cB [EG]2 [EB]c/d/ | [Ge]2 [Bd]2 [Ac][FB] | [Ge]4 [EG][DF] | %13
 E2 E2 [EG][EB] | [DF]2 [DF]2 [EG][EB] | [Ec]2 [Ec]2 [EG][DF] | E4"^3x" z2 :| %17
[Q:1/4=105]"^Ritenuto" [CE]6 | [B,E]6 |] %19
V:2
|: [E,B,][B,,A,] | [E,G,]2 [E,G,]2 [E,B,][G,,B,] | [B,,B,]2 [B,,B,]2 [E,B,][G,B,] | %3
 A,2 [E,G,]2 [B,,B,][B,,A,] | [E,G,]4 [E,B,][B,,A,] | [E,G,]2 [E,G,]2 [E,B,][G,,B,] | %6
 [B,,B,]2 [B,,B,]2 [E,B,][G,B,] | A,2 [E,G,]2 [B,,B,][B,,A,] | [E,G,]4 [G,B,][F,A,] | %9
 [E,B,]2 [G,B,]2 [A,E][E,E] | A,G, [E,B,]2 [G,B,][F,A,] | [E,B,]2 [G,B,]2 [A,E][B,D] | %12
 [E,B,]4 [E,B,][B,,A,] | [E,G,]2 [E,G,]2 [E,B,][G,,B,] | [B,,B,]2 [B,,B,]2 [E,B,][G,B,] | %15
 A,2 [E,G,]2 [B,,B,][B,,A,] | [E,G,]4 z2 :| [A,,B,]6 | [E,G,]6 |] %19
V:3
|: x2 | x6 | x6 | x6 | x6 | x6 | x6 | x6 | x4 x A | x6 | x4 x A | x6 | x6 | x6 | x6 | x6 | x6 :| %17
 x6 | x6 |] %19

